svgs/power.svg

<svg width="192" height="192" viewBox="0 0 192 192" fill="none" xmlns="http://www.w3.org/2000/svg">
<path d="M148.326 41.6489C158.675 52.1083 165.723 65.4343 168.578 79.9419C171.433 94.4494 169.968 109.487 164.367 123.153C158.766 136.818 149.281 148.499 137.112 156.717C124.943 164.935 110.636 169.321 96 169.321C81.3642 169.321 67.0571 164.935 54.8878 156.717C42.7186 148.499 33.2338 136.818 27.6329 123.153C22.0321 109.487 20.5666 94.4494 23.4219 79.9419C26.2772 65.4343 33.325 52.1083 43.6741 41.6489" stroke="black" stroke-width="12" stroke-linecap="round"/>
<path d="M96 22V93.9392" stroke="black" stroke-width="12" stroke-linecap="round"/>
</svg>

<svg xmlns="http://www.w3.org/2000/svg" width="192" height="192" fill="none" viewBox="0 0 192 192"><path stroke="#000" stroke-linecap="round" stroke-width="12" d="M148.326 41.649c10.349 10.46 17.397 23.785 20.252 38.293a75.532 75.532 0 0 1-4.211 43.211c-5.601 13.665-15.086 25.346-27.255 33.564A73.443 73.443 0 0 1 96 169.321a73.445 73.445 0 0 1-41.112-12.604c-12.17-8.218-21.654-19.899-27.255-33.564a75.53 75.53 0 0 1-4.211-43.211c2.855-14.508 9.903-27.834 20.252-38.293M96 22v71.94"/></svg>
